X:1
T:Title
%%score { ( 1 3 4 ) | ( 2 5 ) }
L:1/8
Q:1/4=100
M:6/8
K:Bb
V:1 treble nm="Grand Piano"
V:3 treble 
V:4 treble 
V:2 bass 
V:5 bass 
V:1
 [B,D][CE][_D=E] [=DF]2 [Fd] | [Ec]2 [Fd] [DB]2 [B,D] | [DF]2 [EG] E2 F | D6 | %4
w: E.~O.~Excell * * * *||||
 D[CE][_D=E] [=DF]2 [Fd] | [Ec]2 [Fd] [DB]2 [DF] | G2 B A2 c | [DB]6 | .[Fd]6 | .[DF]6 | .[EA]6 | %11
w: |||||||
 B6 | .[Fd]6 | .[DF]6[K:bass][K:treble] | %14
w: |||
 .[EA]6[Q:1/4=97][Q:1/4=94][Q:1/4=91][Q:1/4=88][Q:1/4=84][Q:1/4=81][Q:1/4=78] | B6 |] %16
w: ||
V:2
 [B,,F,][B,,F,][B,,F,] [B,,B,]2 [B,,B,] | [F,A,]2 [F,A,] [B,,B,]2 [B,,F,] | %2
 [B,,B,]2 [B,,B,] [F,C]2 [F,D] | [B,,F,B,]6 | [B,,F,B,][B,,F,][B,,F,] [B,,B,]2 [B,,B,] | %5
 [F,A,]2 [F,A,] [B,,B,]2 [B,,B,] | [E,B,E]2 [E,G,E] [F,E]2 [F,E] | [B,,F,]6 | [B,,B,]B,,B,, z ED | %9
 B,,B,,B,, z B,D | F,F,F, z EE | B,,B,,[B,,G,] .[B,,F,]3 | [B,,B,]B,,B,, z ED | %13
 B,,B,,B,, B,,B,,B,, | F,F,F, F,[F,B,F][F,A,E] | B,,B,,[B,,G,] [B,,F,]3 |] %16
V:3
 x6 | x6 | x6 | x6 | x6 | x6 | x6 | x6 | z B,B, z cB | B,B,B, B,DB | CCC z GA | [B,D-][B,D]E .D3 | %12
 z B,B, z cB | B,[K:bass]B,B, B,[F,B,D][K:treble][B,DB] | CCC Cdc | [B,D-][B,D]E D3 |] %16
V:4
 x6 | x6 | x6 | x6 | x6 | x6 | x6 | x6 | z3 .B,3 | x6 | z3 .C3 | x6 | z3 .B,3 | %13
 x[K:bass] x4[K:treble] x | x6 | x6 |] %16
V:5
 x6 | x6 | x6 | x6 | x6 | x6 | x6 | x6 | z3 .B,,3 | z3 .B,,3 | z3 .F,3 | x6 | z3 .B,,3 | x6 | x6 | %15
 x6 |] %16

